storage/app/icons/phosphoricons/bold/building-bold.svg

<svg xmlns="http://www.w3.org/2000/svg" fill="currentColor" viewBox="0 0 256 256"><path d="M232 220h-20V36h4a12 12 0 0 0 0-24H40a12 12 0 0 0 0 24h4v184H24a12 12 0 0 0 0 24h208a12 12 0 0 0 0-24M68 36h120v184h-24v-36a12 12 0 0 0-12-12h-48a12 12 0 0 0-12 12v36H68Zm72 184h-24v-24h24ZM84 64a12 12 0 0 1 12-12h12a12 12 0 0 1 0 24H96a12 12 0 0 1-12-12m52 0a12 12 0 0 1 12-12h12a12 12 0 0 1 0 24h-12a12 12 0 0 1-12-12m-52 40a12 12 0 0 1 12-12h12a12 12 0 0 1 0 24H96a12 12 0 0 1-12-12m52 0a12 12 0 0 1 12-12h12a12 12 0 0 1 0 24h-12a12 12 0 0 1-12-12m-52 40a12 12 0 0 1 12-12h12a12 12 0 0 1 0 24H96a12 12 0 0 1-12-12m52 0a12 12 0 0 1 12-12h12a12 12 0 0 1 0 24h-12a12 12 0 0 1-12-12"/></svg>

<svg xmlns="http://www.w3.org/2000/svg" viewBox="0 0 256 256" fill="currentColor"><path d="M232,220H212V36h4a12,12,0,0,0,0-24H40a12,12,0,0,0,0,24h4V220H24a12,12,0,0,0,0,24H232a12,12,0,0,0,0-24ZM68,36H188V220H164V184a12,12,0,0,0-12-12H104a12,12,0,0,0-12,12v36H68Zm72,184H116V196h24ZM84,64A12,12,0,0,1,96,52h12a12,12,0,0,1,0,24H96A12,12,0,0,1,84,64Zm52,0a12,12,0,0,1,12-12h12a12,12,0,0,1,0,24H148A12,12,0,0,1,136,64ZM84,104A12,12,0,0,1,96,92h12a12,12,0,0,1,0,24H96A12,12,0,0,1,84,104Zm52,0a12,12,0,0,1,12-12h12a12,12,0,0,1,0,24H148A12,12,0,0,1,136,104ZM84,144a12,12,0,0,1,12-12h12a12,12,0,0,1,0,24H96A12,12,0,0,1,84,144Zm52,0a12,12,0,0,1,12-12h12a12,12,0,0,1,0,24H148A12,12,0,0,1,136,144Z"/></svg>
